Simply-Cyan-Circles/scalable/apps/qgo.svg

<svg xmlns="http://www.w3.org/2000/svg" width="48" height="48" viewBox="0 0 12.7 12.7"><path d="M6.34.07a6.29 6.29 0 0 0-6.29 6.3 6.29 6.29 0 0 0 6.3 6.28 6.29 6.29 0 0 0 6.28-6.29A6.29 6.29 0 0 0 6.34.07zM6.32 1l.01.01a5.4 5.4 0 0 1 5.4 5.4 5.4 5.4 0 0 1-5.4 5.41 5.4 5.4 0 0 1-5.41-5.4A5.4 5.4 0 0 1 6.32 1zm2.12 1.51a1.63 1.63 0 0 0-1.62 1.63 1.63 1.63 0 0 0 1.62 1.63 1.63 1.63 0 0 0 1.63-1.63 1.63 1.63 0 0 0-1.63-1.63zM4.26 6.93a1.63 1.63 0 0 0-1.63 1.63 1.63 1.63 0 0 0 1.63 1.63 1.63 1.63 0 0 0 1.62-1.63 1.63 1.63 0 0 0-1.62-1.63z" fill="#5beedc"/><path d="M4.26 2.51a1.63 1.63 0 0 0-1.63 1.63 1.63 1.63 0 0 0 1.63 1.63 1.63 1.63 0 0 0 1.62-1.63 1.63 1.63 0 0 0-1.62-1.63zm4.18 4.42a1.63 1.63 0 0 0-1.62 1.63 1.63 1.63 0 0 0 1.62 1.63 1.63 1.63 0 0 0 1.63-1.63 1.63 1.63 0 0 0-1.63-1.63z" fill="#5beedc" opacity=".53"/></svg>

<?xml version="1.0" encoding="UTF-8" standalone="no"?>
<svg
   xmlns:dc="http://purl.org/dc/elements/1.1/"
   xmlns:cc="http://creativecommons.org/ns#"
   xmlns:rdf="http://www.w3.org/1999/02/22-rdf-syntax-ns#"
   xmlns:svg="http://www.w3.org/2000/svg"
   xmlns="http://www.w3.org/2000/svg"
   xmlns:sodipodi="http://sodipodi.sourceforge.net/DTD/sodipodi-0.dtd"
   xmlns:inkscape="http://www.inkscape.org/namespaces/inkscape"
   width="48"
   height="48"
   viewBox="0 0 12.7 12.7"
   version="1.1"
   id="svg6"
   sodipodi:docname="qgo.svg"
   inkscape:version="0.92.4 (5da689c313, 2019-01-14)">
  <metadata
     id="metadata12">
    <rdf:RDF>
      <cc:Work
         rdf:about="">
        <dc:format>image/svg+xml</dc:format>
        <dc:type
           rdf:resource="http://purl.org/dc/dcmitype/StillImage" />
        <dc:title></dc:title>
      </cc:Work>
    </rdf:RDF>
  </metadata>
  <defs
     id="defs10" />
  <sodipodi:namedview
     pagecolor="#ffffff"
     bordercolor="#666666"
     borderopacity="1"
     objecttolerance="10"
     gridtolerance="10"
     guidetolerance="10"
     inkscape:pageopacity="0"
     inkscape:pageshadow="2"
     inkscape:window-width="1087"
     inkscape:window-height="480"
     id="namedview8"
     showgrid="false"
     inkscape:zoom="4.9166667"
     inkscape:cx="2.1355932"
     inkscape:cy="24"
     inkscape:window-x="0"
     inkscape:window-y="25"
     inkscape:window-maximized="0"
     inkscape:current-layer="svg6" />
  <path
     d="M 6.34,0.07 A 6.29,6.29 0 0 0 0.05,6.37 6.29,6.29 0 0 0 6.35,12.65 6.29,6.29 0 0 0 12.63,6.36 6.29,6.29 0 0 0 6.34,0.07 Z M 6.32,1 6.33,1.01 a 5.4,5.4 0 0 1 5.4,5.4 5.4,5.4 0 0 1 -5.4,5.41 A 5.4,5.4 0 0 1 0.92,6.42 5.4,5.4 0 0 1 6.32,1 Z M 8.44,2.51 A 1.63,1.63 0 0 0 6.82,4.14 1.63,1.63 0 0 0 8.44,5.77 1.63,1.63 0 0 0 10.07,4.14 1.63,1.63 0 0 0 8.44,2.51 Z M 4.26,6.93 A 1.63,1.63 0 0 0 2.63,8.56 1.63,1.63 0 0 0 4.26,10.19 1.63,1.63 0 0 0 5.88,8.56 1.63,1.63 0 0 0 4.26,6.93 Z"
     id="path2"
     inkscape:connector-curvature="0"
     style="fill:#5beedc" />
  <path
     d="M 4.26,2.51 A 1.63,1.63 0 0 0 2.63,4.14 1.63,1.63 0 0 0 4.26,5.77 1.63,1.63 0 0 0 5.88,4.14 1.63,1.63 0 0 0 4.26,2.51 Z M 8.44,6.93 A 1.63,1.63 0 0 0 6.82,8.56 1.63,1.63 0 0 0 8.44,10.19 1.63,1.63 0 0 0 10.07,8.56 1.63,1.63 0 0 0 8.44,6.93 Z"
     id="path4"
     inkscape:connector-curvature="0"
     style="opacity:0.52999998;fill:#5beedc" />
</svg>
